icons/squirrel-16.svg

<svg width="16" height="16" viewBox="0 0 16 16" fill="none" xmlns="http://www.w3.org/2000/svg">
<path fill-rule="evenodd" clip-rule="evenodd" d="M3.74991 1.5C2.77035 1.5 1.93702 2.12599 1.6281 2.99978C1.73416 3.00911 1.84569 3.02227 1.96067 3.04043C2.63457 3.14684 3.59712 3.4543 4.14309 4.36408C4.74524 5.36748 4.48569 6.41762 4.21177 7.25519C4.14031 7.47368 4.06659 7.68305 3.99473 7.88714C3.76437 8.54135 3.55317 9.14116 3.49727 9.81225C3.392 11.0762 3.83253 11.9559 4.5551 12.5429C5.30743 13.154 6.43514 13.5 7.74991 13.5H9.80462C10.2553 13.2162 10.7793 12.6183 11.0003 11.8789C11.2251 11.1273 11.1445 10.2115 10.2303 9.2909L10.2197 9.28033C9.92678 8.98744 9.92678 8.51256 10.2197 8.21967C10.5126 7.92678 10.9874 7.92678 11.2803 8.21967C11.5912 8.53053 12.6169 9.05858 13.9879 8.54728C14.376 8.40254 14.808 8.59983 14.9527 8.98793C15.0975 9.37603 14.9002 9.80799 14.5121 9.95272C13.7833 10.2245 13.0977 10.2976 12.4879 10.2456C12.6706 10.9577 12.6305 11.6631 12.4375 12.3086C12.3087 12.7393 12.1126 13.1415 11.8746 13.5H13.2499C13.6641 13.5 13.9999 13.8358 13.9999 14.25C13.9999 14.6642 13.6641 15 13.2499 15H7.74991C6.20075 15 4.7035 14.596 3.60932 13.7071C2.48539 12.7941 1.85786 11.4238 2.00245 9.68775C2.07608 8.80373 2.37531 7.95952 2.61599 7.28049L2.61601 7.28043C2.67825 7.10482 2.73658 6.94027 2.78607 6.78893C3.05355 5.97108 3.08607 5.51778 2.85691 5.13592C2.65274 4.7957 2.24029 4.60316 1.72672 4.52207C1.48481 4.48387 1.25733 4.47702 1.0889 4.48032C1.00566 4.48196 0.939329 4.48601 0.895917 4.48941C0.874272 4.49111 0.858513 4.49262 0.849403 4.49356L0.840883 4.49447C0.628129 4.52045 0.414384 4.45415 0.25365 4.31226C0.0923759 4.16989 0 3.96512 0 3.75C0 1.67896 1.67882 0 3.74991 0C5.49829 0 6.96548 1.19582 7.38173 2.81306C7.48497 3.2142 7.24348 3.62308 6.84234 3.72633C6.4412 3.82957 6.03232 3.58808 5.92907 3.18694C5.67926 2.21634 4.7973 1.5 3.74991 1.5ZM12.5 0.75C12.5 0.335786 12.1642 0 11.75 0C11.3358 0 11 0.335786 11 0.75V1.93934L5.71967 7.21967C5.42678 7.51256 5.42678 7.98744 5.71967 8.28033C6.01256 8.57322 6.48744 8.57322 6.78033 8.28033L11.9422 3.11848C12.3118 3.29269 12.7068 3.57744 13.0392 3.9425C13.4318 4.37353 13.6778 4.84954 13.7364 5.29631C13.6201 5.41825 13.4311 5.50684 13.1456 5.53483C12.7583 5.5728 12.3494 5.47505 12.1142 5.34438C11.7521 5.14322 11.2955 5.27368 11.0944 5.63577C10.8932 5.99786 11.0237 6.45446 11.3858 6.65562C11.9006 6.94161 12.6167 7.09387 13.2919 7.02767C13.9739 6.96081 14.7648 6.64736 15.1708 5.83541C15.2229 5.73127 15.25 5.61643 15.25 5.5C15.25 4.50305 14.7579 3.60188 14.1483 2.9325C13.6817 2.42016 13.1 1.99146 12.5 1.72414V0.75Z" fill="black"/>
</svg>

<svg xmlns="http://www.w3.org/2000/svg" width="16" height="16" viewBox="0 0 16 16"><path fill-rule="evenodd" d="M3.75 1.5A2.25 2.25 0 001.628 3c.106.01.218.022.333.04.674.107 1.636.414 2.182 1.324.602 1.003.343 2.054.069 2.891-.072.219-.145.428-.217.632-.23.654-.442 1.254-.498 1.925-.105 1.264.336 2.144 1.058 2.73.752.612 1.88.958 3.195.958h2.055c.45-.284.974-.882 1.195-1.621.225-.752.145-1.668-.77-2.588l-.01-.01a.75.75 0 111.06-1.061c.311.31 1.337.839 2.708.327a.75.75 0 01.524 1.406 4.636 4.636 0 01-2.024.293 3.832 3.832 0 01-.05 2.063 4.49 4.49 0 01-.563 1.191h1.375a.75.75 0 010 1.5h-5.5c-1.55 0-3.046-.404-4.14-1.293-1.125-.913-1.752-2.283-1.608-4.02.074-.883.373-1.727.614-2.407.062-.175.12-.34.17-.491.268-.818.3-1.271.07-1.653-.203-.34-.616-.533-1.13-.614a3.697 3.697 0 00-.877-.028H.841A.75.75 0 010 3.75a3.75 3.75 0 017.382-.937.75.75 0 01-1.453.374A2.251 2.251 0 003.75 1.5zM12.5.75a.75.75 0 00-1.5 0v1.19L5.72 7.22a.75.75 0 001.06 1.06l5.162-5.162c.37.175.765.46 1.097.825.393.43.639.907.697 1.353-.116.122-.305.21-.59.239-.388.038-.797-.06-1.032-.19a.75.75 0 10-.728 1.31c.515.287 1.23.439 1.906.373.682-.067 1.473-.38 1.879-1.193a.75.75 0 00.079-.335c0-.997-.492-1.898-1.102-2.567A5.087 5.087 0 0012.5 1.724V.75z"/></svg>
